X: 41664
T: Upperchurch, The
R: polka
M: 2/4
K: Dmajor
|:f2 fg/f/|ed d>A|cd ef|ag g>f|
g2 ga/g/|fe e>A|dc Bc|1 B/c/B/A/ FA:|2 ed d2||
|:af f/^e/f/g/|af f>g|af bf|ag g>f|
ge e/^d/e/f/|ge e^d/e/|1 ag fe|d/e/d/c/ B>A:|2 ag Bc|d2 d2||

